X: 21245
T: Keelman Brown Of Newburn
R: barndance
M: 4/4
K: Dmajor
|:de|"D"fdfa d2dc|"G"BGBd "D"A2de|"D"fdfa gfed|"D"f2e2 "A7"e2de|
"D"fdfa d2dc|"G"BGBd "D"A2DE|"D"FA"G"GB "A7"Aage|"D"f2d2 d2:|
|:ef|"G"gBgf "A7"eAde|"Bm"fAfe "D"d2de|"D"fdfa gfed|"D"f2e2 "A7"e2ef|
"G"gBgf "A7"eAde|"Bm"fAfe "D"d2AG|"D"FA"G"GB "A"Aage|"D"f2d2 d2:|

